icons/desktop/12/svg/heart-rate-12.svg

<svg width="12" height="12" viewBox="0 0 12 12" fill="none" xmlns="http://www.w3.org/2000/svg">
<path d="M5.46289 4.88477C5.70421 3.99456 6.87612 3.86714 7.32812 4.60645L7.40918 4.76562L7.92383 6.03223H8.87207C9.21716 6.03225 9.49696 6.31216 9.49707 6.65723C9.49684 7.00219 9.21708 7.2822 8.87207 7.28223H7.77539C7.356 7.28223 6.97973 7.02712 6.82227 6.6416L6.49805 5.84375L5.88477 8.11426L5.88379 8.11523C5.62402 9.07055 4.29334 9.14511 3.93262 8.21973L3.56738 7.28223H3.12402C2.77899 7.28223 2.49925 7.00221 2.49902 6.65723C2.49913 6.31214 2.77891 6.03223 3.12402 6.03223H3.71875C4.14058 6.03223 4.52359 6.29073 4.67773 6.6875L4.85254 7.1377L5.46289 4.88477Z" fill="black"/>
<path fill-rule="evenodd" clip-rule="evenodd" d="M6 2C7.1785 2 8.4363 2.03516 9.76074 2.12109C11.0083 2.20209 12 3.23066 12 4.49512V8.50488C12 9.6819 11.1459 10.667 10.0068 10.8525L9.77539 10.8789C8.58492 10.9557 7.32432 11.001 6 11.001C4.8215 11.001 3.5637 10.9658 2.23926 10.8799C0.991714 10.7989 0 9.77032 0 8.50586V4.49609C0 3.24065 0.971835 2.20342 2.22461 2.12207L3.13086 2.07031C4.04959 2.02512 5.00685 2 6 2ZM6 3.25C4.70447 3.25 3.47108 3.29494 2.30566 3.37012C1.71044 3.40877 1.25 3.89954 1.25 4.49609V8.50586C1.25 9.09725 1.71607 9.59262 2.32031 9.63184C3.61587 9.7159 4.8465 9.75098 6 9.75098C7.29553 9.75098 8.52892 9.70604 9.69434 9.63086C10.2896 9.59221 10.75 9.10144 10.75 8.50488V4.49512C10.75 3.90372 10.2839 3.40836 9.67969 3.36914C8.38412 3.28508 7.1535 3.25 6 3.25Z" fill="black"/>
</svg>

<!-- This Source Code Form is subject to the terms of the Mozilla Public
   - License, v. 2.0. If a copy of the MPL was not distributed with this
   - file, You can obtain one at http://mozilla.org/MPL/2.0/. -->
<svg xmlns="http://www.w3.org/2000/svg" width="12" height="12" fill="context-fill" fill-opacity="context-fill-opacity" viewBox="0 0 12 12">
    <path d="M5.463 4.885c.241-.89 1.413-1.018 1.865-.279l.081.16.515 1.266h.948a.625.625 0 0 1 0 1.25H7.775a1.03 1.03 0 0 1-.953-.64l-.324-.798-.613 2.27-.001.001c-.26.956-1.59 1.03-1.951.105l-.366-.938h-.443a.625.625 0 0 1 0-1.25h.595c.422 0 .805.259.959.656l.175.45z" />
    <path fill-rule="evenodd" d="M6 2c1.178 0 2.436.035 3.76.121A2.387 2.387 0 0 1 12 4.495v4.01a2.38 2.38 0 0 1-1.993 2.347l-.232.027a59 59 0 0 1-7.536 0A2.387 2.387 0 0 1 0 8.507v-4.01c0-1.255.972-2.293 2.225-2.374l.906-.052Q4.51 2.001 6 2m0 1.25c-1.296 0-2.529.045-3.694.12A1.126 1.126 0 0 0 1.25 4.496v4.01c0 .591.466 1.087 1.07 1.126a57 57 0 0 0 7.374-.001 1.126 1.126 0 0 0 1.056-1.126v-4.01c0-.591-.466-1.087-1.07-1.126A57 57 0 0 0 6 3.25" clip-rule="evenodd" />
</svg>
